public/main-frontend/img/financial-times.svg

<svg width="89" height="122" viewBox="0 0 89 122" fill="none" xmlns="http://www.w3.org/2000/svg">
<path d="M41.91 118.199H42.286C42.661 119.574 44.031 120.948 45.529 120.948C46.773 120.948 47.273 120.081 47.273 119.203C47.273 116.825 42.038 116.441 42.038 113.446C42.038 112.059 43.408 110.809 44.906 110.809C46.404 110.809 47.027 111.317 47.649 111.317C47.895 111.317 48.149 111.058 48.149 110.809H48.526V114.065H48.149C47.773 112.567 46.651 111.564 45.282 111.564C44.16 111.564 43.784 112.319 43.784 112.938C43.784 115.068 49.025 115.068 49.025 118.695C49.025 120.329 47.65 121.58 45.905 121.58C44.16 121.58 43.66 120.949 42.908 120.949C42.661 120.949 42.408 121.085 42.408 121.455H41.909L41.91 118.199ZM31.187 121.332V120.948C32.186 120.948 32.432 120.824 32.432 119.698V112.815C32.432 111.688 32.186 111.688 31.187 111.564V111.18H39.665V113.446H39.295C38.919 112.319 38.543 111.935 36.551 111.935H35.054C34.554 111.935 34.431 112.059 34.431 112.444V115.7H36.175C37.796 115.7 38.043 115.439 38.296 114.313H38.666V117.952H38.296C38.043 116.702 37.544 116.441 36.176 116.441H34.43V119.946C34.43 120.576 34.553 120.824 36.42 120.824C38.295 120.824 39.295 120.452 40.164 118.694H40.54L39.794 121.454H31.186L31.187 121.332ZM26.198 111.18H29.688V111.564C28.69 111.564 28.443 111.688 28.443 112.815V119.821C28.443 120.948 28.69 120.948 29.689 121.084V121.455H25.07V121.084C26.07 121.084 26.322 120.948 26.322 119.821V112.692L22.956 121.58H22.456L19.084 112.692V119.574C19.084 120.577 19.336 120.948 20.458 121.084V121.455H16.838V121.084C17.961 120.948 18.214 120.577 18.214 119.574V112.692C18.214 111.935 17.961 111.688 16.839 111.688V111.317H20.582L23.326 118.447L26.198 111.18ZM13.972 119.698C13.972 120.824 14.225 120.824 15.47 120.948V121.332H10.482V120.948C11.727 120.948 11.974 120.824 11.974 119.698V112.815C11.974 111.687 11.727 111.687 10.482 111.564V111.18H15.47V111.564C14.225 111.564 13.972 111.688 13.972 112.815V119.698ZM2.244 120.948C3.373 120.948 3.742 120.824 3.742 119.698V111.812H2.497C1.375 111.812 0.875 112.319 0.499 113.694H0L0.253 111.057H9.23L9.482 113.694H8.982C8.607 112.319 8.231 111.812 6.985 111.812H5.741V119.698C5.741 120.825 5.987 120.825 7.239 120.948V121.332H2.374V120.948H2.244ZM79.583 104.929V104.545C80.581 104.545 80.828 104.42 80.828 103.295V96.2887C80.828 95.1597 80.581 95.1597 79.583 95.0377V94.6536H84.318V95.0377C83.196 95.0377 82.95 95.1607 82.95 96.2887V103.418C82.95 104.049 83.073 104.297 84.318 104.297C86.194 104.297 87.192 103.926 88.06 102.168H88.437L87.692 104.929H79.583ZM71.475 101.165L72.973 97.1666L74.465 101.165H71.475ZM78.708 104.929V104.545C77.962 104.545 77.708 104.173 77.338 103.295L73.72 94.5286H73.22L69.477 103.678C69.23 104.298 68.855 104.545 68.232 104.668V105.052H71.475V104.668C70.724 104.668 70.475 104.545 70.475 104.05C70.475 103.678 70.975 102.552 71.099 102.168H74.842C74.966 102.552 75.464 103.678 75.464 104.05C75.464 104.545 75.096 104.668 74.342 104.668V105.052H78.708V104.929ZM65.735 103.295C65.735 104.421 65.987 104.421 67.232 104.545V104.929H62.244V104.545C63.49 104.545 63.743 104.42 63.743 103.295V96.2887C63.743 95.1597 63.49 95.1597 62.244 95.0377V94.6536H67.232V95.0377C65.987 95.0377 65.735 95.1607 65.735 96.2887V103.295ZM60.869 102.416C59.747 104.298 58.379 105.052 56.258 105.052C52.891 105.052 51.016 102.923 51.016 99.6676C51.016 97.2906 52.891 94.4056 56.381 94.4056C57.503 94.4056 59.001 95.0377 59.125 95.0377C59.377 95.0377 59.5 94.9126 59.747 94.4056H60.247L60.5 97.7857H60C59.377 96.1637 58.379 95.0377 56.505 95.0377C54.137 95.0377 53.015 97.6616 53.015 99.6676C53.015 102.416 54.137 104.297 56.756 104.297C58.749 104.297 59.876 102.799 60.248 102.168L60.869 102.416ZM48.027 96.5357C48.027 95.5327 47.773 95.1607 46.652 95.0377V94.6536H50.271V95.0377C49.149 95.1607 48.895 95.5327 48.895 96.5347V105.052H48.395L41.415 97.0436V102.923C41.415 103.926 41.663 104.298 42.785 104.421V104.804H39.166V104.421C40.288 104.298 40.541 103.926 40.541 102.923V96.0406C40.165 95.4086 39.795 95.1607 39.166 95.0377V94.6536H41.91L48.027 101.674V96.5357ZM30.811 101.165L32.309 97.1666L33.807 101.165H30.811ZM38.043 104.929V104.545C37.297 104.545 37.051 104.173 36.675 103.295L33.055 94.5286H32.555L28.813 103.678C28.566 104.298 28.19 104.545 27.568 104.668V105.052H30.811V104.668C30.065 104.668 29.812 104.545 29.812 104.05C29.812 103.678 30.312 102.552 30.434 102.168H34.178C34.301 102.552 34.801 103.678 34.801 104.05C34.801 104.545 34.431 104.668 33.678 104.668V105.052H38.044L38.043 104.929ZM25.323 96.5347C25.323 95.5327 25.07 95.1607 23.948 95.0377V94.6536H27.568V95.0377C26.445 95.1607 26.198 95.5327 26.198 96.5347V105.052H25.698L18.713 97.0436V102.923C18.713 103.926 18.96 104.298 20.082 104.421V104.804H16.469V104.421C17.591 104.298 17.838 103.926 17.838 102.923V96.0406C17.462 95.4086 17.092 95.1607 16.469 95.0377V94.6536H19.336L25.446 101.674V96.5347H25.323ZM13.349 103.295C13.349 104.421 13.595 104.421 14.847 104.545V104.929H9.854V104.545C11.105 104.545 11.352 104.42 11.352 103.295V96.2887C11.352 95.1597 11.105 95.1597 9.854 95.0377V94.6536H14.849V95.0377C13.596 95.0377 13.35 95.1607 13.35 96.2887V103.295H13.349ZM3.373 103.295C3.373 104.421 3.619 104.421 4.865 104.545V104.929H0V104.545C0.999 104.545 1.252 104.42 1.252 103.295V96.2887C1.252 95.1597 0.999 95.1597 0 95.0377V94.6536H8.484V96.9066H8.108C7.738 95.7796 7.362 95.4076 5.365 95.4076H3.866C3.373 95.4076 3.243 95.5316 3.243 95.9026V99.1716H4.995C6.61 99.1716 6.862 98.9117 7.109 97.7857H7.485V101.425H7.11C6.863 100.162 6.364 99.9146 4.996 99.9146H3.243V103.295H3.373ZM80.706 12.6396H45.782L45.029 21.4036H47.027C48.272 17.1456 50.147 15.5236 54.383 15.5236H59.247V46.1996C59.247 50.3336 58.126 50.8296 53.637 50.9516V52.4636H72.843V50.9516C68.353 50.8286 67.232 50.3337 67.232 46.1987V15.5236H72.096C76.339 15.5236 78.208 17.0216 79.459 21.4036H81.449L80.706 12.6396ZM22.703 46.1996C22.703 50.3347 23.825 50.8296 28.566 50.9526V52.4646H9.73V50.9526C13.595 50.8296 14.717 50.3347 14.717 46.1996V18.9036C14.717 14.7686 13.595 14.2736 9.853 14.1496V12.6396H43.038L43.284 21.4036H41.662C40.288 16.8986 38.796 15.5236 30.933 15.5236H24.947C23.079 15.5236 22.703 15.8956 22.703 17.5286V30.1686H25.7C31.934 30.1686 33.18 29.0416 34.055 24.9076H35.553V39.0566H34.055C33.18 34.3036 30.935 33.1766 25.7 33.1766H22.704V46.1996H22.703Z" fill="white"/>
</svg>

<svg xmlns="http://www.w3.org/2000/svg" width="89" height="122" fill="none"><path fill="#F2F2F2" d="M88.19 0H.13v88.401h88.06V0Z"/><path fill="#1B202F" d="M41.91 118.199h.376c.375 1.375 1.745 2.749 3.243 2.749 1.244 0 1.744-.867 1.744-1.745 0-2.378-5.235-2.762-5.235-5.757 0-1.387 1.37-2.637 2.868-2.637 1.498 0 2.121.508 2.743.508.246 0 .5-.259.5-.508h.377v3.256h-.377c-.376-1.498-1.498-2.501-2.867-2.501-1.122 0-1.498.755-1.498 1.374 0 2.13 5.241 2.13 5.241 5.757 0 1.634-1.375 2.885-3.12 2.885s-2.245-.631-2.997-.631c-.247 0-.5.136-.5.506h-.499v-3.256Zm-10.723 3.133v-.384c.999 0 1.245-.124 1.245-1.25v-6.883c0-1.127-.246-1.127-1.245-1.251v-.384h8.478v2.266h-.37c-.376-1.127-.752-1.511-2.744-1.511h-1.497c-.5 0-.623.124-.623.509v3.256h1.744c1.621 0 1.868-.261 2.121-1.387h.37v3.639h-.37c-.253-1.25-.752-1.511-2.12-1.511H34.43v3.505c0 .63.123.878 1.99.878 1.875 0 2.875-.372 3.744-2.13h.376l-.746 2.76h-8.608v-.122Zm-4.989-10.152h3.49v.384c-.998 0-1.245.124-1.245 1.251v7.006c0 1.127.247 1.127 1.246 1.263v.371H25.07v-.371c1 0 1.252-.136 1.252-1.263v-7.129l-3.366 8.888h-.5l-3.372-8.888v6.882c0 1.003.252 1.374 1.374 1.51v.371h-3.62v-.371c1.123-.136 1.376-.507 1.376-1.51v-6.882c0-.757-.253-1.004-1.375-1.004v-.371h3.743l2.744 7.13 2.872-7.267Zm-12.226 8.518c0 1.126.253 1.126 1.498 1.25v.384h-4.988v-.384c1.245 0 1.492-.124 1.492-1.25v-6.883c0-1.128-.247-1.128-1.492-1.251v-.384h4.988v.384c-1.245 0-1.498.124-1.498 1.251v6.883Zm-11.728 1.25c1.129 0 1.498-.124 1.498-1.25v-7.886H2.497c-1.122 0-1.622.507-1.998 1.882H0l.253-2.637H9.23l.252 2.637h-.5c-.375-1.375-.751-1.882-1.997-1.882H5.741v7.886c0 1.127.246 1.127 1.498 1.25v.384H2.374v-.384h-.13Zm77.339-16.019v-.384c.998 0 1.245-.125 1.245-1.25v-7.006c0-1.129-.247-1.129-1.245-1.251v-.384h4.735v.384c-1.122 0-1.368.123-1.368 1.251v7.129c0 .631.123.879 1.368.879 1.876 0 2.874-.371 3.742-2.129h.377l-.745 2.761h-8.109Zm-8.108-3.764 1.498-3.998 1.492 3.998h-2.99Zm7.233 3.764v-.384c-.746 0-1-.372-1.37-1.25l-3.618-8.766h-.5l-3.743 9.149c-.247.62-.622.867-1.245.99v.384h3.243v-.384c-.751 0-1-.123-1-.618 0-.372.5-1.498.624-1.882h3.743c.124.384.622 1.51.622 1.882 0 .495-.368.618-1.122.618v.384h4.366v-.123Zm-12.973-1.634c0 1.126.252 1.126 1.497 1.25v.384h-4.988v-.384c1.246 0 1.499-.125 1.499-1.25v-7.006c0-1.129-.253-1.129-1.499-1.251v-.384h4.988v.384c-1.245 0-1.497.123-1.497 1.251v7.006Zm-4.866-.879c-1.122 1.882-2.49 2.636-4.611 2.636-3.367 0-5.242-2.129-5.242-5.384 0-2.377 1.875-5.262 5.365-5.262 1.122 0 2.62.632 2.744.632.252 0 .375-.125.622-.632h.5l.253 3.38H60c-.623-1.622-1.621-2.748-3.495-2.748-2.368 0-3.49 2.624-3.49 4.63 0 2.748 1.122 4.629 3.741 4.629 1.993 0 3.12-1.498 3.492-2.129l.621.248Zm-12.842-5.88c0-1.003-.254-1.375-1.375-1.498v-.384h3.619v.384c-1.122.123-1.376.495-1.376 1.497v8.517h-.5l-6.98-8.008v5.879c0 1.003.248 1.375 1.37 1.498v.383h-3.619v-.383c1.122-.123 1.375-.495 1.375-1.498v-6.882c-.376-.632-.746-.88-1.375-1.003v-.384h2.744l6.117 7.02v-5.139Zm-17.216 4.629 1.498-3.998 1.498 3.998h-2.996Zm7.232 3.764v-.384c-.746 0-.992-.372-1.368-1.25l-3.62-8.766h-.5l-3.742 9.149c-.247.62-.623.867-1.245.99v.384h3.243v-.384c-.746 0-.999-.123-.999-.618 0-.372.5-1.498.622-1.882h3.744c.123.384.623 1.51.623 1.882 0 .495-.37.618-1.123.618v.384h4.366v-.123Zm-12.72-8.394c0-1.002-.253-1.374-1.375-1.497v-.384h3.62v.384c-1.123.123-1.37.495-1.37 1.497v8.517h-.5l-6.985-8.008v5.879c0 1.003.247 1.375 1.369 1.498v.383h-3.613v-.383c1.122-.123 1.369-.495 1.369-1.498v-6.882c-.376-.632-.746-.88-1.369-1.003v-.384h2.867l6.11 7.02v-5.139h-.123Zm-11.974 6.76c0 1.126.246 1.126 1.498 1.25v.384H9.854v-.384c1.251 0 1.498-.125 1.498-1.25v-7.006c0-1.129-.247-1.129-1.498-1.251v-.384h4.995v.384c-1.253 0-1.499.123-1.499 1.251v7.006Zm-9.976 0c0 1.126.246 1.126 1.492 1.25v.384H0v-.384c.999 0 1.252-.125 1.252-1.25v-7.006c0-1.129-.253-1.129-1.252-1.251v-.384h8.484v2.253h-.376c-.37-1.127-.746-1.499-2.743-1.499H3.866c-.493 0-.623.124-.623.495v3.269h1.752c1.615 0 1.867-.26 2.114-1.386h.376v3.639H7.11c-.247-1.263-.746-1.51-2.114-1.51H3.243v3.38h.13ZM80.706 12.64H45.782l-.753 8.764h1.998c1.245-4.258 3.12-5.88 7.356-5.88h4.864V46.2c0 4.134-1.121 4.63-5.61 4.752v1.512h19.206v-1.512c-4.49-.123-5.611-.618-5.611-4.753V15.524h4.864c4.243 0 6.112 1.498 7.363 5.88h1.99l-.743-8.764ZM22.703 46.2c0 4.135 1.122 4.63 5.863 4.753v1.512H9.73v-1.512c3.865-.123 4.987-.618 4.987-4.753V18.904c0-4.135-1.122-4.63-4.864-4.754v-1.51h33.185l.246 8.764h-1.622c-1.374-4.505-2.866-5.88-10.729-5.88h-5.986c-1.868 0-2.244.372-2.244 2.005v12.64H25.7c6.234 0 7.48-1.127 8.355-5.261h1.498v14.149h-1.498c-.875-4.753-3.12-5.88-8.355-5.88h-2.996V46.2Z"/></svg>
